%
<G01-V1-TLB0288> (CHAFLANES POS G01-V1 TLB0288)
(8-10-2024 9:10:23)
(POSTP: Autodesk Fanuc 31i Model B Rev. 43280)
(Machine: Gantry 1200 5Axis HH-CA-45)
(TOOLPATHSEGSLENGTH=655)
(HERRAMIENTAS)
(T22 FRESA HELICOIDAL DIAM 80 H72  Z5 SECO R220.59-00080.072-12.5K)
(T108 R220.49-0120-6-B-02907406 35-T0 E18-SUP)
(T118 FRESA BICONICA TULIPA-080-8-T8-8-L138)
N10 G69
N15 G90 G94 G17 G49 G40 G80
N20 G21
N25 G53 G00 Z0.
N30 G310 A0 C0

(MEC. DEMASIA CHAFLAN PS-1)
N35 [#_MSGSTP]=1 (HTA: T22 FRESA HELICOIDAL DIAM 80 H72  Z5 SECO R220.59-00080.072-12.5K)
N40 T22 M06
N45 G54
N50 G168.2 X0. Y0. Z0. I0. J0. K0. E100
N55 S438 M03
N60 G00 G43 Z400. H22
N65 G00 X-99. Y-100.
N70 G00 Z50.
N75 G01 Z1. F213.
N80 Z-73.
N85 G41 X0. Z-73. D22 F284. (#0)
N90 Y490. Z-73. (#1)
N95 Y1080. Z-73. (#2)
N100 Y1670. Z-73. (#3)
N105 Y2260. Z-73. (#4)
N110 Y2850. Z-73. (#5)
N115 G40 X-99. Z-73. (#5)
N120 G00 Z400.

(MEC. DEMASIA CHAFLAN PS-3)
N125 G168.2 X0. Y0. Z0. I0. J0. K0. E100
N130 G00 X7780. Y2850.
N135 Z400.
N140 Z50.
N145 G01 Z1. F213.
N150 Z-73.
N155 G41 X7681. Z-73. D22 F284. (#6)
N160 Y2260. Z-73. (#7)
N165 Y1670. Z-73. (#8)
N170 Y1080. Z-73. (#9)
N175 Y490. Z-73. (#10)
N180 Y-100. Z-73. (#11)
N185 G40 X7780. Z-73. (#11)
N190 G00 Z400.
N195 M05
N200 G53 G00 Z0.
N205 G310 A0 C0
N210 G49

(CHAFLAN PS-SUP-1)
N215 [#_MSGSTP]=1 (HTA: T108 )
N220 T108 M06
N225 G54
N230 G168.2 X0. Y0. Z0. I0. J0. K0. E100
N235 S477 M04
N240 G00 G43 Z400. H108
N245 G00 X-150.26 Y2850.
N250 G00 Z50.
N255 G01 Z1. F215.
N260 Z-22.
N265 G42 X-12.6 Z-22. D108 F573. (#5)
N270 Y2259.72 Z-22. (#4)
N275 Y1669.44 Z-22. (#3)
N280 Y1079.16 Z-22. (#2)
N285 Y488.88 Z-22. (#1)
N290 Y-101.4 Z-22. (#0)
N295 G40 X-150.26 Z-22. (#0)
N300 G00 Z150.
N305 X-147.46 Y2850.
N310 Z50.
N315 G01 Z1. F215.
N320 Z-22.
N325 G42 X-9.8 Z-22. D108 F573. (#5)
N330 Y2259.72 Z-22. (#4)
N335 Y1669.44 Z-22. (#3)
N340 Y1079.16 Z-22. (#2)
N345 Y488.88 Z-22. (#1)
N350 Y-101.4 Z-22. (#0)
N355 G40 X-147.46 Z-22. (#0)
N360 G00 Z150.
N365 X-144.66 Y2850.
N370 Z50.
N375 G01 Z1. F215.
N380 Z-22.
N385 G42 X-7. Z-22. D108 F573. (#5)
N390 Y2259.72 Z-22. (#4)
N395 Y1669.44 Z-22. (#3)
N400 Y1079.16 Z-22. (#2)
N405 Y488.88 Z-22. (#1)
N410 Y-101.4 Z-22. (#0)
N415 G40 X-144.66 Z-22. (#0)
N420 G00 Z150.
N425 X-141.86 Y2850.
N430 Z50.
N435 G01 Z1. F215.
N440 Z-22.
N445 G42 X-4.2 Z-22. D108 F573. (#5)
N450 Y2259.72 Z-22. (#4)
N455 Y1669.44 Z-22. (#3)
N460 Y1079.16 Z-22. (#2)
N465 Y488.88 Z-22. (#1)
N470 Y-101.4 Z-22. (#0)
N475 G40 X-141.86 Z-22. (#0)
N480 G00 Z150.
N485 X-139.06 Y2850.
N490 Z50.
N495 G01 Z1. F215.
N500 Z-22.
N505 G42 X-1.4 Z-22. D108 F573. (#5)
N510 Y2259.72 Z-22. (#4)
N515 Y1669.44 Z-22. (#3)
N520 Y1079.16 Z-22. (#2)
N525 Y488.88 Z-22. (#1)
N530 Y-101.4 Z-22. (#0)
N535 G40 X-139.06 Z-22. (#0)
N540 G00 Z400.

(CHAFLAN PS-SUP-3)
N545 G168.2 X0. Y0. Z0. I0. J0. K0. E100
N550 G00 X7831.26 Y-101.4
N555 Z400.
N560 Z150.
N565 G01 Z1. F215.
N570 Z-22.
N575 G42 X7693.6 Z-22. D108 F573. (#11)
N580 Y488.88 Z-22. (#10)
N585 Y1079.16 Z-22. (#9)
N590 Y1669.44 Z-22. (#8)
N595 Y2259.72 Z-22. (#7)
N600 Y2850. Z-22. (#6)
N605 G40 X7831.26 Z-22. (#6)
N610 G00 Z150.
N615 X7828.46 Y-101.4
N620 G01 Z1. F215.
N625 Z-22.
N630 G42 X7690.8 Z-22. D108 F573. (#11)
N635 Y488.88 Z-22. (#10)
N640 Y1079.16 Z-22. (#9)
N645 Y1669.44 Z-22. (#8)
N650 Y2259.72 Z-22. (#7)
N655 Y2850. Z-22. (#6)
N660 G40 X7828.46 Z-22. (#6)
N665 G00 Z150.
N670 X7825.66 Y-101.4
N675 G01 Z1. F215.
N680 Z-22.
N685 G42 X7688. Z-22. D108 F573. (#11)
N690 Y488.88 Z-22. (#10)
N695 Y1079.16 Z-22. (#9)
N700 Y1669.44 Z-22. (#8)
N705 Y2259.72 Z-22. (#7)
N710 Y2850. Z-22. (#6)
N715 G40 X7825.66 Z-22. (#6)
N720 G00 Z150.
N725 X7822.86 Y-101.4
N730 G01 Z1. F215.
N735 Z-22.
N740 G42 X7685.2 Z-22. D108 F573. (#11)
N745 Y488.88 Z-22. (#10)
N750 Y1079.16 Z-22. (#9)
N755 Y1669.44 Z-22. (#8)
N760 Y2259.72 Z-22. (#7)
N765 Y2850. Z-22. (#6)
N770 G40 X7822.86 Z-22. (#6)
N775 G00 Z150.
N780 X7820.06 Y-101.4
N785 G01 Z1. F215.
N790 Z-22.
N795 G42 X7682.4 Z-22. D108 F573. (#11)
N800 Y488.88 Z-22. (#10)
N805 Y1079.16 Z-22. (#9)
N810 Y1669.44 Z-22. (#8)
N815 Y2259.72 Z-22. (#7)
N820 Y2850. Z-22. (#6)
N825 G40 X7820.06 Z-22. (#6)
N830 G00 Z400.
N835 M05
N840 G53 G00 Z0.
N845 G310 A0 C0
N850 G49
N3025 M30
%